; generated by PrusaSlicer 2.3.0+win64 on 2021-03-09 at 20:28:42 UTC


;
;

;
;
; 

; external perimeters extrusion width = 0.40mm
; perimeters extrusion width = 0.40mm
; infill extrusion width = 0.45mm
; solid infill extrusion width = 0.45mm
; top infill extrusion width = 0.40mm
; first layer extrusion width = 0.42mm

M73 P0 R3
M201 X1250 Y1250 Z400 E5000 ; sets maximum accelerations, mm/sec^2
M203 X180 Y180 Z12 E80 ; sets maximum feedrates, mm/sec
M204 P1250 R1250 T1250 ; sets acceleration (P, T) and retract acceleration (R), mm/sec^2
M205 X8.00 Y8.00 Z2.00 E10.00 ; sets the jerk limits, mm/sec
M205 S0 T0 ; sets the minimum extruding and travel feed rate, mm/sec
M107
;TYPE:Custom
G90 ; use absolute coordinates
M83 ; extruder relative mode
M104 S170 ; set extruder temp for bed leveling
M140 S60 ; set bed temp
M109 R170 ; wait for bed leveling temp
M190 S60 ; wait for bed temp
G28 ; home all without mesh bed level
G29 ; mesh bed leveling 
M104 S215 ; set extruder temp
G92 E0.0
G1 Y-2.0 X179 F2400
M73 P2 R3
G1 Z3 F720
M109 S215 ; wait for extruder temp

; intro line
G1 X170 F1000
G1 Z0.2 F720
G1 X110.0 E8.0 F900
M73 P4 R3
G1 X40.0 E10.0 F700
G92 E0.0

M221 S95 ; set flow
G21 ; set units to millimeters
G90 ; use absolute coordinates
M83 ; use relative distances for extrusion
M900 K0.2 ; Filament gcode LA 1.5
; ; Filament gcode LA 1.0
;LAYER_CHANGE
;Z:0.2
;HEIGHT:0.2
;BEFORE_LAYER_CHANGE
G92 E0.0
;0.2


M73 P7 R3
G1 Z0.200 F9000.000
;AFTER_LAYER_CHANGE
;0.2
G1 E-3.20000 F4200.000
G1 Z0.400 F9000.000
G1 X88.868 Y81.937
M73 P8 R3
G1 Z0.200
G1 E3.20000 F2400.000
M204 S800
;TYPE:Skirt
;WIDTH:0.42
G1 F1057
G1 X91.504 Y81.873 E0.08268
G1 X92.480 Y82.030 E0.03099
G1 X93.354 Y82.481 E0.03085
G1 X94.831 Y83.914 E0.06451
G1 X95.347 Y84.701 E0.02950
G1 X95.549 Y85.291 E0.01957
G1 X96.596 Y90.036 E0.15233
G1 X96.596 Y92.975 E0.09215
G1 X96.316 Y93.873 E0.02950
G1 X95.780 Y94.651 E0.02963
G1 X95.004 Y95.410 E0.03402
G1 X92.257 Y97.587 E0.10991
G1 X91.648 Y97.909 E0.02161
G1 X90.987 Y98.089 E0.02148
G1 X89.044 Y98.091 E0.06091
G1 X88.439 Y97.937 E0.01957
G1 X87.874 Y97.663 E0.01970
M73 P9 R3
G1 X86.744 Y96.676 E0.04703
G1 X84.964 Y94.341 E0.09207
G1 X83.885 Y92.727 E0.06088
G1 X83.576 Y92.125 E0.02120
G1 X83.404 Y91.471 E0.02120
G1 X83.404 Y89.534 E0.06074
G1 X83.665 Y88.675 E0.02814
G1 X85.791 Y84.435 E0.14873
G1 X86.188 Y83.893 E0.02107
G1 X87.349 Y82.729 E0.05153
G1 X88.055 Y82.226 E0.02719
G1 X88.812 Y81.958 E0.02517
M204 S1250
G1 X88.935 Y82.315 F9000.000
M204 S800
G1 F1057
G1 X88.976 Y82.300 E0.00135
G1 X91.504 Y82.250 E0.07928
G1 X92.374 Y82.393 E0.02765
G1 X93.155 Y82.803 E0.02765
G1 X94.554 Y84.170 E0.06135
G1 X95.019 Y84.891 E0.02689
G1 X96.224 Y90.096 E0.16753
G1 X96.221 Y92.929 E0.08882
M73 P10 R3
G1 X95.968 Y93.727 E0.02625
G1 X95.486 Y94.412 E0.02625
G1 X94.763 Y95.120 E0.03175
G1 X92.034 Y97.283 E0.10917
G1 X91.493 Y97.565 E0.01912
G1 X90.900 Y97.721 E0.01924
G1 X89.090 Y97.717 E0.05675
G1 X88.547 Y97.575 E0.01758
G1 X88.042 Y97.323 E0.01771
G1 X86.994 Y96.391 E0.04397
G1 X85.268 Y94.117 E0.08951
G1 X84.193 Y92.508 E0.06067
G1 X83.921 Y91.971 E0.01886
G1 X83.773 Y91.388 E0.01886
G1 X83.779 Y89.580 E0.05671
G1 X84.009 Y88.830 E0.02460
G1 X86.120 Y84.618 E0.14773
G1 X86.475 Y84.137 E0.01873
G1 X87.605 Y83.005 E0.05014
G1 X88.239 Y82.556 E0.02434
G1 X88.879 Y82.334 E0.02124
M204 S1250
G1 X88.999 Y82.692 F9000.000
M204 S800
G1 F1057
G1 X89.079 Y82.665 E0.00266
G1 X91.504 Y82.627 E0.07604
G1 X92.267 Y82.754 E0.02426
G1 X92.949 Y83.120 E0.02426
G1 X94.277 Y84.426 E0.05842
M73 P11 R3
G1 X94.689 Y85.077 E0.02414
G1 X95.851 Y90.153 E0.16329
G1 X95.847 Y92.880 E0.08549
G1 X95.622 Y93.576 E0.02296
G1 X95.195 Y94.171 E0.02296
G1 X94.518 Y94.834 E0.02970
G1 X91.818 Y96.974 E0.10801
G1 X91.341 Y97.219 E0.01680
G1 X90.826 Y97.350 E0.01668
G1 X89.139 Y97.343 E0.05289
G1 X88.662 Y97.215 E0.01550
G1 X88.218 Y96.988 E0.01562
G1 X87.249 Y96.112 E0.04097
G1 X85.571 Y93.894 E0.08719
G1 X84.503 Y92.294 E0.06030
G1 X84.269 Y91.825 E0.01645
G1 X84.143 Y91.316 E0.01645
G1 X84.153 Y89.629 E0.05289
G1 X84.353 Y88.984 E0.02119
G1 X86.448 Y84.804 E0.14659
G1 X86.759 Y84.386 E0.01633
G1 X87.860 Y83.284 E0.04885
G1 X88.424 Y82.885 E0.02166
G1 X88.942 Y82.711 E0.01712
M204 S1250
; printing object mushroom.stl id:0 copy 0
M73 P12 R3
G1 E-2.24000 F4200.000
;WIPE_START
G1 F7200.000
G1 X89.079 Y82.665 E-0.08018
G1 X90.580 Y82.642 E-0.83182
;WIPE_END
G1 E-0.04800 F4200.000
G1 Z0.400 F9000.000
G1 X89.703 Y93.232
G1 Z0.200
G1 E3.20000 F2400.000
M204 S800
;TYPE:External perimeter
G1 F1057
G1 X90.797 Y93.232 E0.03429
G1 X90.688 Y94.214 E0.03099
G1 X89.812 Y94.214 E0.02747
G1 X89.710 Y93.292 E0.02911
M204 S1250
G1 X89.599 Y92.846 F9000.000
G1 X89.710 Y92.478
M204 S800
;TYPE:Perimeter
G1 F1057
G1 X89.673 Y92.478 E0.00116
G1 X89.697 Y91.853 E0.01962
G1 X89.164 Y91.849 E0.01671
G1 X89.165 Y91.340 E0.01595
G1 X88.659 Y91.340 E0.01585
G1 X88.656 Y90.668 E0.02107
G1 X90.336 Y90.669 E0.05269
G1 X90.336 Y91.168 E0.01567
G1 X91.336 Y91.168 E0.03135
G1 X91.336 Y91.668 E0.01568
G1 X91.836 Y91.668 E0.01568
G1 X91.836 Y91.845 E0.00554
G1 X90.803 Y91.851 E0.03240
G1 X90.827 Y92.478 E0.01968
G1 X89.770 Y92.478 E0.03316
M204 S1250
G1 E-2.24000 F4200.000
;WIPE_START
G1 F7200.000
G1 X89.673 Y92.478 E-0.05380
G1 X89.697 Y91.853 E-0.34673
G1 X89.164 Y91.849 E-0.29534
G1 X89.165 Y91.459 E-0.21613
;WIPE_END
G1 E-0.04800 F4200.000
G1 Z0.400 F9000.000
G1 X90.164 Y87.840
G1 Z0.200
G1 E3.20000 F2400.000
M204 S800
G1 F1057
G1 X90.164 Y87.340 E0.01568
G1 X89.664 Y87.340 E0.01568
G1 X89.664 Y87.168 E0.00538
G1 X90.164 Y87.168 E0.01568
G1 X90.164 Y86.668 E0.01568
M73 P13 R3
G1 X90.836 Y86.668 E0.02106
G1 X90.836 Y87.840 E0.03674
G1 X90.224 Y87.840 E0.01918
M204 S1250
G1 X90.224 Y88.217 F9000.000
M204 S800
G1 F1057
G1 X89.787 Y88.217 E0.01370
G1 X89.787 Y87.717 E0.01568
G1 X89.287 Y87.717 E0.01568
G1 X89.287 Y86.791 E0.02903
G1 X89.787 Y86.791 E0.01568
G1 X89.787 Y86.291 E0.01568
G1 X90.287 Y86.291 E0.01568
G1 X90.287 Y85.791 E0.01568
G1 X90.713 Y85.791 E0.01335
G1 X90.713 Y86.291 E0.01568
G1 X91.213 Y86.291 E0.01568
G1 X91.213 Y86.791 E0.01568
G1 X91.713 Y86.791 E0.01568
G1 X91.713 Y87.217 E0.01335
G1 X91.213 Y87.217 E0.01568
G1 X91.213 Y88.217 E0.03135
G1 X90.713 Y88.217 E0.01568
G1 X90.713 Y90.791 E0.08071
G1 X91.713 Y90.791 E0.03135
G1 X91.713 Y91.291 E0.01568
G1 X92.713 Y91.291 E0.03135
G1 X92.713 Y91.717 E0.01335
G1 X92.213 Y91.717 E0.01568
G1 X92.213 Y92.220 E0.01578
G1 X91.195 Y92.226 E0.03192
G1 X91.219 Y92.832 E0.01902
G1 X91.009 Y92.855 E0.00662
G1 X89.491 Y92.855 E0.04759
G1 X89.281 Y92.832 E0.00662
G1 X89.305 Y92.227 E0.01899
G1 X88.787 Y92.223 E0.01624
G1 X88.787 Y91.717 E0.01586
G1 X88.284 Y91.717 E0.01579
G1 X88.279 Y90.699 E0.03192
G1 X87.672 Y90.723 E0.01902
G1 X87.648 Y90.504 E0.00690
G1 X87.673 Y90.282 E0.00701
G1 X90.287 Y90.291 E0.08197
G1 X90.284 Y88.217 E0.06504
M204 S1250
M73 P14 R3
G1 X89.910 Y88.594 F9000.000
M204 S800
;TYPE:External perimeter
G1 F1057
G1 X89.410 Y88.594 E0.01568
G1 X89.410 Y88.094 E0.01568
G1 X88.910 Y88.094 E0.01568
G1 X88.910 Y86.414 E0.05268
G1 X89.410 Y86.414 E0.01568
G1 X89.410 Y85.914 E0.01568
G1 X89.910 Y85.914 E0.01568
G1 X89.910 Y85.414 E0.01568
G1 X91.090 Y85.414 E0.03700
G1 X91.090 Y85.914 E0.01568
G1 X91.590 Y85.914 E0.01568
G1 X91.590 Y86.414 E0.01568
G1 X92.090 Y86.414 E0.01568
G1 X92.090 Y87.594 E0.03700
G1 X91.590 Y87.594 E0.01568
G1 X91.590 Y88.594 E0.03135
G1 X91.090 Y88.594 E0.01568
G1 X91.090 Y90.414 E0.05706
G1 X92.090 Y90.414 E0.03135
G1 X92.090 Y90.914 E0.01568
G1 X93.090 Y90.914 E0.03135
G1 X93.090 Y92.094 E0.03700
G1 X92.590 Y92.094 E0.01568
G1 X92.590 Y92.596 E0.01572
G1 X91.587 Y92.601 E0.03145
G1 X91.609 Y93.169 E0.01782
G1 X91.178 Y93.216 E0.01361
G1 X91.208 Y93.764 E0.01722
G1 X90.790 Y93.821 E0.01323
G1 X90.790 Y94.294 E0.01484
G1 X90.316 Y94.294 E0.01486
G1 X90.261 Y94.706 E0.01303
G1 X89.761 Y94.696 E0.01570
G1 X89.697 Y94.325 E0.01183
G1 X89.307 Y94.252 E0.01242
G1 X89.312 Y93.215 E0.03252
G1 X88.891 Y93.169 E0.01330
G1 X88.913 Y92.601 E0.01780
G1 X88.410 Y92.598 E0.01578
G1 X88.410 Y92.094 E0.01578
G1 X87.909 Y92.094 E0.01572
G1 X87.904 Y91.091 E0.03145
G1 X87.336 Y91.114 E0.01782
G1 X87.292 Y90.712 E0.01266
G1 X86.892 Y90.669 E0.01261
M73 P15 R3
G1 X86.892 Y90.340 E0.01032
G1 X87.292 Y90.296 E0.01261
G1 X87.336 Y89.895 E0.01265
G1 X87.997 Y89.914 E0.02074
G1 X89.910 Y89.914 E0.05998
G1 X89.910 Y88.654 E0.03951
M204 S1250
G1 X90.037 Y88.215 F9000.000
G1 X90.500 Y87.652
M204 S800
;TYPE:Gap fill
;WIDTH:0.337526
G1 F1057
G1 X90.500 Y86.857 E0.01947
M204 S1250
G1 E-2.24000 F4200.000
;WIPE_START
G1 F7200.000
G1 X90.500 Y87.652 E-0.44034
;WIPE_END
G1 E-0.51966 F4200.000
G1 Z0.400 F9000.000
G1 X90.757 Y91.738
G1 Z0.200
G1 E3.20000 F2400.000
M204 S800
;TYPE:Solid infill
;WIDTH:0.495415
G1 F1057
G1 X90.470 Y91.451 E0.01525
G1 X90.053 Y91.451 E0.01569
G1 X90.053 Y91.034 E0.01569
G1 X89.970 Y90.951 E0.00441
G1 X89.330 Y90.951 E0.02408
G1 X90.708 Y92.329 E0.07333
M204 S1250
G1 E-2.24000 F4200.000
;WIPE_START
G1 F7200.000
G1 X89.545 Y91.166 E-0.91200
;WIPE_END
G1 E-0.04800 F4200.000
G1 Z0.400 F9000.000
G1 X89.523 Y93.535
G1 Z0.200
G1 E3.20000 F2400.000
M204 S800
;TYPE:Gap fill
;WIDTH:0.121638
G1 F1057
G1 X89.538 Y93.820 E0.00187
M204 S1250
M204 S800
;WIDTH:0.149955
G1
G1 X89.553 Y94.106 E0.00255
M204 S1250
; stop printing object mushroom.stl id:0 copy 0
M106 S84.15
;LAYER_CHANGE
;Z:0.25
;HEIGHT:0.05
;BEFORE_LAYER_CHANGE
G92 E0.0
;0.25


G1 Z0.250 F9000.000
;AFTER_LAYER_CHANGE
;0.25
M104 S210 ; set temperature
G1 E-3.20000 F4200.000
G1 Z0.450 F9000.000
G1 X87.874 Y97.663
G1 Z0.250
G1 E3.20000 F2400.000
;TYPE:Skirt
;WIDTH:0.42
G1 F1308
G1 X86.744 Y96.676 E0.01276
G1 X84.964 Y94.341 E0.02498
M73 P16 R3
G1 X83.885 Y92.727 E0.01652
G1 X83.576 Y92.125 E0.00575
G1 X83.404 Y91.471 E0.00575
G1 X83.404 Y89.534 E0.01648
G1 X83.665 Y88.675 E0.00764
G1 X85.791 Y84.435 E0.04036
G1 X86.188 Y83.893 E0.00572
G1 X87.349 Y82.729 E0.01398
G1 X88.055 Y82.226 E0.00738
G1 X88.868 Y81.937 E0.00734
G1 X91.504 Y81.873 E0.02244
G1 X92.480 Y82.030 E0.00841
G1 X93.354 Y82.481 E0.00837
G1 X94.831 Y83.914 E0.01751
G1 X95.347 Y84.701 E0.00800
G1 X95.549 Y85.291 E0.00531
G1 X96.596 Y90.036 E0.04133
G1 X96.596 Y92.975 E0.02500
G1 X96.316 Y93.873 E0.00800
G1 X95.780 Y94.651 E0.00804
G1 X95.004 Y95.410 E0.00923
G1 X92.257 Y97.587 E0.02982
G1 X91.648 Y97.909 E0.00586
G1 X90.987 Y98.089 E0.00583
G1 X89.044 Y98.091 E0.01653
G1 X88.439 Y97.937 E0.00531
G1 X87.928 Y97.689 E0.00484
G1 X88.096 Y97.350 F9000.000
M73 P17 R3
G1 F1308
G1 X88.042 Y97.323 E0.00052
G1 X86.994 Y96.391 E0.01193
G1 X85.268 Y94.117 E0.02429
G1 X84.193 Y92.508 E0.01646
G1 X83.921 Y91.971 E0.00512
G1 X83.773 Y91.388 E0.00512
G1 X83.779 Y89.580 E0.01539
G1 X84.009 Y88.830 E0.00667
G1 X86.120 Y84.618 E0.04009
G1 X86.475 Y84.137 E0.00508
G1 X87.605 Y83.005 E0.01361
G1 X88.239 Y82.556 E0.00661
G1 X88.976 Y82.300 E0.00664
G1 X91.504 Y82.250 E0.02151
G1 X92.374 Y82.393 E0.00750
G1 X93.155 Y82.803 E0.00750
G1 X94.554 Y84.170 E0.01665
G1 X95.019 Y84.891 E0.00730
G1 X96.224 Y90.096 E0.04546
G1 X96.221 Y92.929 E0.02410
G1 X95.968 Y93.727 E0.00712
G1 X95.486 Y94.412 E0.00712
G1 X94.763 Y95.120 E0.00862
G1 X92.034 Y97.283 E0.02962
G1 X91.493 Y97.565 E0.00519
G1 X90.900 Y97.721 E0.00522
G1 X89.090 Y97.717 E0.01540
G1 X88.547 Y97.575 E0.00477
G1 X88.150 Y97.377 E0.00378
M73 P18 R3
G1 X88.218 Y96.988 F9000.000
G1 F1308
G1 X87.249 Y96.112 E0.01112
G1 X85.571 Y93.894 E0.02366
G1 X84.503 Y92.294 E0.01636
G1 X84.269 Y91.825 E0.00446
G1 X84.143 Y91.316 E0.00446
G1 X84.153 Y89.629 E0.01435
G1 X84.353 Y88.984 E0.00575
G1 X86.448 Y84.804 E0.03978
G1 X86.759 Y84.386 E0.00443
G1 X87.860 Y83.284 E0.01326
G1 X88.424 Y82.885 E0.00588
G1 X89.079 Y82.665 E0.00588
G1 X91.504 Y82.627 E0.02063
G1 X92.267 Y82.754 E0.00658
G1 X92.949 Y83.120 E0.00658
G1 X94.277 Y84.426 E0.01585
G1 X94.689 Y85.077 E0.00655
G1 X95.851 Y90.153 E0.04431
G1 X95.847 Y92.880 E0.02320
G1 X95.622 Y93.576 E0.00623
G1 X95.195 Y94.171 E0.00623
G1 X94.518 Y94.834 E0.00806
G1 X91.818 Y96.974 E0.02931
G1 X91.341 Y97.219 E0.00456
G1 X90.826 Y97.350 E0.00453
G1 X89.139 Y97.343 E0.01435
G1 X88.662 Y97.215 E0.00421
G1 X88.271 Y97.015 E0.00373
; printing object mushroom.stl id:0 copy 0
G1 E-2.24000 F4200.000
;WIPE_START
M73 P19 R3
G1 F7200.000
G1 X87.249 Y96.112 E-0.75631
G1 X87.079 Y95.888 E-0.15569
;WIPE_END
G1 E-0.04800 F4200.000
G1 Z0.450 F9000.000
G1 X89.800 Y94.204
G1 Z0.250
G1 E3.20000 F2400.000
M204 S300
;TYPE:External perimeter
;WIDTH:0.4
G1 F900.000
G1 X89.800 Y93.304 E0.00728
G1 X90.700 Y93.304 E0.00728
G1 X90.700 Y94.204 E0.00728
G1 X89.860 Y94.204 E0.00680
M204 S1250
G1 X89.414 Y94.308 F9000.000
G1 E-2.24000 F4200.000
;WIPE_START
G1 F7200.000
G1 X89.800 Y93.304 E-0.49986
G1 X90.544 Y93.304 E-0.41214
;WIPE_END
G1 E-0.04800 F4200.000
G1 Z0.450 F9000.000
G1 X90.521 Y86.483
G1 Z0.250
G1 E3.20000 F2400.000
M204 S300
;TYPE:Perimeter
G1 F900.000
G1 X91.021 Y86.483 E0.00405
G1 X91.021 Y86.983 E0.00405
G1 X91.521 Y86.983 E0.00405
G1 X91.521 Y87.026 E0.00035
G1 X91.021 Y87.026 E0.00405
G1 X91.021 Y88.026 E0.00809
G1 X90.521 Y88.026 E0.00405
G1 X90.521 Y90.983 E0.02393
G1 X91.521 Y90.983 E0.00809
G1 X91.521 Y91.483 E0.00405
G1 X92.521 Y91.483 E0.00809
G1 X92.521 Y91.526 E0.00035
G1 X92.021 Y91.526 E0.00405
G1 X92.021 Y92.026 E0.00405
G1 X91.021 Y92.026 E0.00809
G1 X91.021 Y92.526 E0.00405
M73 P20 R3
G1 X89.479 Y92.526 E0.01249
G1 X89.479 Y92.026 E0.00405
G1 X88.979 Y92.026 E0.00405
G1 X88.979 Y91.526 E0.00405
G1 X88.479 Y91.526 E0.00405
G1 X88.479 Y90.526 E0.00809
G1 X87.979 Y90.526 E0.00405
G1 X87.979 Y90.483 E0.00035
G1 X90.479 Y90.483 E0.02023
G1 X90.479 Y88.026 E0.01988
G1 X89.979 Y88.026 E0.00405
G1 X89.979 Y87.526 E0.00405
G1 X89.479 Y87.526 E0.00405
G1 X89.479 Y86.983 E0.00439
G1 X89.979 Y86.983 E0.00405
G1 X89.979 Y86.483 E0.00405
G1 X90.479 Y86.483 E0.00405
G1 X90.479 Y85.983 E0.00405
G1 X90.521 Y85.983 E0.00035
G1 X90.521 Y86.423 E0.00356
M204 S1250
G1 X90.911 Y86.094 F9000.000
M204 S300
G1 F900.000
G1 X91.411 Y86.094 E0.00405
G1 X91.411 Y86.594 E0.00405
G1 X91.911 Y86.594 E0.00405
G1 X91.911 Y87.415 E0.00665
G1 X91.411 Y87.415 E0.00405
G1 X91.411 Y88.415 E0.00809
G1 X90.911 Y88.415 E0.00405
G1 X90.911 Y90.594 E0.01763
G1 X91.911 Y90.594 E0.00809
G1 X91.911 Y91.094 E0.00405
G1 X92.911 Y91.094 E0.00809
G1 X92.911 Y91.915 E0.00665
G1 X92.411 Y91.915 E0.00405
M73 P21 R3
G1 X92.411 Y92.415 E0.00405
G1 X91.411 Y92.415 E0.00809
G1 X91.411 Y92.915 E0.00405
G1 X89.089 Y92.915 E0.01879
G1 X89.089 Y92.415 E0.00405
G1 X88.589 Y92.415 E0.00405
G1 X88.589 Y91.915 E0.00405
G1 X88.089 Y91.915 E0.00405
G1 X88.089 Y90.915 E0.00809
G1 X87.589 Y90.915 E0.00405
G1 X87.589 Y90.094 E0.00665
G1 X90.089 Y90.094 E0.02023
G1 X90.089 Y88.415 E0.01358
G1 X89.589 Y88.415 E0.00405
G1 X89.589 Y87.915 E0.00405
G1 X89.089 Y87.915 E0.00405
G1 X89.089 Y86.594 E0.01069
G1 X89.589 Y86.594 E0.00405
G1 X89.589 Y86.094 E0.00405
G1 X90.089 Y86.094 E0.00405
G1 X90.089 Y85.594 E0.00405
G1 X90.911 Y85.594 E0.00665
G1 X90.911 Y86.034 E0.00356
M204 S1250
G1 X91.300 Y85.704 F9000.000
M204 S300
;TYPE:External perimeter
G1 F900.000
G1 X91.800 Y85.704 E0.00405
G1 X91.800 Y86.204 E0.00405
G1 X92.300 Y86.204 E0.00405
G1 X92.300 Y87.804 E0.01295
G1 X91.800 Y87.804 E0.00405
G1 X91.800 Y88.804 E0.00809
G1 X91.300 Y88.804 E0.00405
G1 X91.300 Y90.204 E0.01133
M73 P22 R3
G1 X92.300 Y90.204 E0.00809
G1 X92.300 Y90.704 E0.00405
G1 X93.300 Y90.704 E0.00809
G1 X93.300 Y92.304 E0.01295
G1 X92.800 Y92.304 E0.00405
G1 X92.800 Y92.804 E0.00405
G1 X91.800 Y92.804 E0.00809
G1 X91.800 Y93.304 E0.00405
G1 X91.300 Y93.304 E0.00405
G1 X91.300 Y93.804 E0.00405
G1 X90.800 Y93.804 E0.00405
G1 X90.800 Y94.304 E0.00405
G1 X90.300 Y94.304 E0.00405
G1 X90.300 Y94.796 E0.00398
G1 X89.714 Y94.796 E0.00474
G1 X89.714 Y94.304 E0.00398
G1 X89.200 Y94.304 E0.00416
G1 X89.200 Y93.304 E0.00809
G1 X88.700 Y93.304 E0.00405
G1 X88.700 Y92.804 E0.00405
G1 X88.200 Y92.804 E0.00405
G1 X88.200 Y92.304 E0.00405
G1 X87.700 Y92.304 E0.00405
G1 X87.700 Y91.304 E0.00809
G1 X87.200 Y91.304 E0.00405
G1 X87.200 Y90.804 E0.00405
